X: 12977
T: Field Of Bannockburn, The
R: strathspey
M: 4/4
K: Adorian
G|E<AA>B c>d (3edc|B<Gd>G e>Gd>G|E<AA>B c>de>a|a>ed<B A2 A|
E<AA>B c>de>d|B<Gd>G e>Gd>G|E<AA>B c>de>a|a>ed<B A2 A||
^g|a2 A>B c>de<a|g2 G>A B>cd<B|a2 A>B c>de>a|a>ed<B A2 A>^g|
a2 A>B c>de<a|g2 G>A B>cd<B|a<ee>f g>ab<a|g<ed<B A2 A||

